X:1
T:Cheek To Cheek
C:Irving Berlin
Z:Creative Commons BY-NC-SA
L:1/4
M:4/4
K:C
V:1 treble nm="MusicXML Part"
V:1
"C" A G-"Am7" G2 |"Dm7" z2"G7" E F |"C" A G-"Am7" G2 |"Dm7" z2"G7" E F |"C" A G"Dm7" B A | %5
w: Heav- en *|I'm in|heav- en *|and my|heart beats so that|
"Ebdim7" c B"C7/E" d c |"Bb7#11" e4 |"A7" z2 d c |"Dm7" B d c A |"G7" G B A F |"Bb7#11" E4 | %11
w: I can hard- ly|speak.|and I|seem to find the|happ- i- ness I|seek|
"A7" z2 F G |"Dm7" A/ A F/- F/ F D/- |"G7" D/ D C/- C/ B, C/- |"C" C2-"Am7" C2 |"Dm7" z2"G7" z2 | %16
w: When we're|out to- geth- * er danc-|* ing cheek * to cheek|||
"C" A G-"Am7" G2 |"Dm7" z2"G7" E F |"C" A G-"Am7" G2 |"Dm7" z2"G7" E F |"C" A G"Dm7" B A | %21
w: Heav- en *|I'm in|heav- en *|and the|cares that hung a-|
"Ebdim7" c B"C7/E" d c |"Bb7#11" e4 |"A7" z2 d c |"Dm7" B d c A |"G7" G B A F |"Bb7#11" E4 | %27
w: round me through the|week|seem to|van- ish like a|gamb- ler's luck- y|streak|
"A7" z2 F G |"Dm7" A/ A F/- F/ F D/- |"G7" D/ D C/- C/ B, C/- |"C" C2- C2 | z2 z/ G/-G/^F/ | %32
w: when we're|out to- geth- * er danc-|* ing cheek * to cheek||Oh * I'd|
"Dm7" F G"G7" B d/c/- |"C" c/ c3/2"A7" z/ G/-G/^F/ |"Dm7" F G"G7" B/ d c/- | c z"A7" z/ G/-G/^F/ | %36
w: love to climb a moun-|* tain and * to|reach the high- est peak|* but * it|
"Dm7" F G"G7" B d |"C" c c/G/-"A7" G z/ ^G/ |"Dm" A A"G7" F B,/C/- |"C" C2"A7" z/ G/-G/^F/ | %40
w: does- n't thrill me|half as much * as|danc- ing cheek to cheek|* oh * I'd|
"Dm7" F G"G7" B d/c/- |"C" d/ c3/2"A7" z/ G/-G/^F/ |"Dm7" F G"G7" B d/c/- |"C" d2"A7" z/ G/-G/^F/ | %44
w: love to go out fish-|* ing in * a|riv- er or a creek|* but * I|
"Dm7" F G"G7" B d |"C" c c/G/-"A7" G z/ ^G/ |"Dm" A A"G7" F B,/C/- |"C" C2 z2 |"Cm7" c c c2- | %49
w: don't en- joy it|half as much * as|danc- ing cheek to cheek||dance with me|
 c2 c c/c/ |"Ab7" _e2 _G/G/ G- | G2 _e2 |"G7" d2 F/F/ F- | F2 d2 |"Em7" c2"A7" E/E/ E- | %55
w: * I want my|arms a- round you|* those|charms a- bout you|* will|car- ry me through|
"Dm7" E2"G7" D2 |"C" A G-"Am7" G2 |"Dm7" z2"G7" E F |"C" A G2 |"Dm7" z2"G7" E F |"C" A G"Dm7" B A | %61
w: * to|heav- en *|I'm in|heav- en|and my|heart beats so that|
"Ebdim7" c B"C7/E" d c |"Bb7#11" e4 |"A7" z2 d c |"Dm7" B d c A |"G7" G B A F |"Bb7#11" E4 | %67
w: I can hard- ly|speak|and I|seem to find the|happ- i- ness I|seek|
"A7" z2 F G |"Dm7" A/ A F/- F/ F D/- |"G7" D/ D C/- C/ B, C/- |"C" C2-"Am7" C2 |"Dm7" z2"G7" z2 |] %72
w: when we're|out to- geth- * er danc-|* ing cheek * to cheek|||

